X: 171
T: The Milliner's Daughter
M: C|
L: 1/8
R: reel
K:Gmaj
"G"G2BG DGBG|"D"A2 (3efg fdcA|"G"G2BG DGBd|"D" cAFG AGGF|
"G"G2BG DGBG|"D"A2 (3efg fdcA|"G"G~B3 d~B3|1 "D"cAFG AGGF:|2 "D"cAFG "G"AGG2||
|: "G"dg~g2 dg~g2|"D"df~f2 df~f2|"G"dg~g2 dg~g2|"D"d^cde fd=cA|
"G"dg~g2 bgag|"D"fdde ~f3g|afge fde^c|"G"d2 (3efg "D"fd=cA:||


